X: 1
T: Calliope House   [D]
C: Dave Richardson
N: Calliope House is a folk center in Pittsburgh.
Z: John Chambers <jc:trillian.mit.edu>
M: 6/8
L: 1/8
K: D
A \
| "D"dAA fAA | "A7"eAA "D"fAA | "Em"Bee e2d | "A"efd BdB || "D"ABA A2F | A2B d2e |
|1 "G"faf fed | "A7"e3- ez :|2 "G"faf "A7"edB | "D"d3- d |: fg | "D"a3 faa | "A7"eaa "D"faf | "G"g3 fgf |
| "A7"efd BdB || "D"ABA A2F | A2B d2e |1 "G"faf fed | "A7"e3- e :|2 "G"faf "A7"edB | "D"d3- dz |]
